X:325
T:Reel 325
M:4/4
K:Gmaj
L:1/8
d|Bcdc BcdB|AGAB cedc|Bcde dcBc|bgaf gfdg|Bcde dcBG|ABcd eAAf|gfge dega|bbab g2g|||agd'b g2gb|agfg abc'a|bgd'g bgd'g|fgac' bggb|afd'f d'bgb|c'bag fgac'|bd'd'b bc'd'c'|bd'c'a bgg2|
